images/dist/ico-arrow-prev.svg

<svg width="18" height="31" viewBox="0 0 18 31" fill="none" xmlns="http://www.w3.org/2000/svg">
<path d="M17.8631 3.59687C17.9492 4.2242 17.7332 4.85526 17.2807 5.2982L7.26993 15.0974C7.06961 15.2935 7.06961 15.6159 7.26993 15.812L17.2807 25.6112C17.7332 26.0542 17.9492 26.6852 17.8631 27.3125L17.7224 28.3365C17.4989 29.9645 15.5163 30.6431 14.342 29.4936L0.730045 16.1693C0.329398 15.7772 0.329398 15.1323 0.730045 14.7401L14.342 1.41578C15.5163 0.266296 17.4989 0.944944 17.7224 2.57292L17.8631 3.59687Z" fill="#7F89A0"/>
</svg>

<svg width="18" height="31" fill="none" xmlns="http://www.w3.org/2000/svg"><path d="M17.863 3.597a2 2 0 01-.582 1.701l-10.011 9.8a.5.5 0 000 .714l10.01 9.8a2 2 0 01.583 1.7l-.14 1.024c-.224 1.629-2.207 2.307-3.381 1.158L.73 16.169a1 1 0 010-1.429L14.342 1.416c1.174-1.15 3.157-.471 3.38 1.157l.141 1.024z" fill="#7F89A0"/></svg>
